X: 2
T: Feng shou ge
%%abc-version 2.0
%%abcx-abcm2ps-target-version 5.9.1 (29 Sep 2008)
%%abc-creator hum2abc beta
%%abcx-conversion-date 2013/10/02 07:44:27
%%abc-edited-by Helmut Schaffrath
%%humdrum-veritas 163091142
%%humdrum-veritas-data 1076547069
%%continueall 1
%%barnumbers 0
L: 1/8
M: 6/8
K: G
D2G A> G B [I:setbarnb 1]| 
D2GA3 | 
B2B A> G B | 
E> G E D E/ D/ B,/ A,/ | 
DD2-D3 | 
G B> A G A/ G/ E/ D/ | 
G G G A d B/ A/ | 
G A/ G/ E/ D/G3 | 
D2G A> G B | 
D2GA3 | 
B2B A> G B | 
E> G E D E/ D/ B,/ A,/ | 
DD2-D3 | 
G B> A G A/ G/ E/ D/ | 
G G G A d B/ A/ | 
G A/ G/ E/ D/G3 |]  



